X: 3220
T: Beg Ar Vann
R: reel
M: 4/4
K: Adorian
AB|Aeed cAAB|GBdB gBdB|cABG ABce|dBgd BAAB|
EAed cAAB|GDGB d2 Bd|egge dBGB|1 cABG A/A/A:|2 cABG A2||
cd|eaag aeed|egfd Bddf|daag fddf|gefg e3 d|
eaag aeed|edcA BGGB|ABcd egge|1 dBGB A2:|2 dBGB A/A/A||

